coreui/free/cil-truck.svg

<svg xmlns="http://www.w3.org/2000/svg" viewBox="0 0 512 512">
  <path fill="var(--ci-primary-color, currentColor)" d="M441.885,141.649A32.028,32.028,0,0,0,415.669,128H336V80a32.036,32.036,0,0,0-32-32H48A32.036,32.036,0,0,0,16,80V408H69.082a67.982,67.982,0,0,0,133.836,0H309.082a67.982,67.982,0,0,0,133.836,0H496V226.522a23.882,23.882,0,0,0-4.338-13.763ZM47.98,80H304V256H48ZM136,432a36,36,0,1,1,36-36A36.04,36.04,0,0,1,136,432Zm240,0a36,36,0,1,1,36-36A36.04,36.04,0,0,1,376,432Zm88-56H440.994a68,68,0,0,0-129.988,0H200.994a68,68,0,0,0-129.988,0H48V288H464Zm0-120H336V160h79.669L464,229.044Z" class="ci-primary"/>
</svg>

<svg viewBox="0 0 512 512" xmlns="http://www.w3.org/2000/svg"><path d="M441.885 141.64v0c-6-8.56-15.78-13.65-26.22-13.65h-79.67v-48 0c-.02-17.67-14.34-31.99-32-32h-256v0c-17.67.01-31.99 14.33-32 32v328h53.08v0c6.61 36.95 41.94 61.55 78.89 54.93 28-5.02 49.92-26.94 54.93-54.94h106.16v-.001c6.61 36.95 41.94 61.55 78.89 54.93 28-5.02 49.92-26.94 54.93-54.94h53.08V226.48v0c0-4.93-1.51-9.74-4.34-13.77ZM47.98 79.99H304v176H48Zm88.02 352v0c-19.89 0-36-16.12-36-36 0-19.89 16.11-36 36-36 19.88 0 36 16.11 36 36v0c-.03 19.87-16.13 35.97-36 36Zm240 0v0c-19.89 0-36-16.12-36-36 0-19.89 16.11-36 36-36 19.88 0 36 16.11 36 36v0c-.03 19.87-16.13 35.97-36 36Zm88-56h-23.01v0c-11.05-35.9-49.1-56.05-84.99-45 -21.53 6.62-38.38 23.47-45 44.99H200.98v0c-11.05-35.9-49.1-56.05-84.99-45 -21.53 6.62-38.38 23.47-45 44.99H47.98v-88h416Zm0-120H336v-96h79.66l48.33 69.04Z"/></svg>
